src/assets/svg/icons/fa/nuevos/classic/light/file-pen classic light.svg

<svg xmlns="http://www.w3.org/2000/svg" viewBox="0 0 576 512"><!--! Font Awesome Pro 6.4.0 by @fontawesome - https://fontawesome.com License - https://fontawesome.com/license (Commercial License) Copyright 2023 Fonticons, Inc. --><path d="M64 480H258.6l-1.1 4.5c-2.3 9.2-1.8 18.8 1.3 27.5H64c-35.3 0-64-28.7-64-64V64C0 28.7 28.7 0 64 0H220.1c12.7 0 24.9 5.1 33.9 14.1L369.9 129.9c9 9 14.1 21.2 14.1 33.9V285.7l-32 32V192H240c-26.5 0-48-21.5-48-48V32H64C46.3 32 32 46.3 32 64V448c0 17.7 14.3 32 32 32zM351.5 160c-.7-2.8-2.1-5.4-4.2-7.4L231.4 36.7c-2.1-2.1-4.6-3.5-7.4-4.2V144c0 8.8 7.2 16 16 16H351.5zm167 104c-6.2-6.2-16.4-6.2-22.6 0l-24.8 24.8 39.9 39.9 24.8-24.8c6.2-6.2 6.2-16.4 0-22.6L518.6 264zM342.4 417.5c-2.1 2.1-3.5 4.6-4.2 7.4L326 473.9l48.9-12.2c2.8-.7 5.4-2.2 7.4-4.2L488.5 351.3l-39.9-39.9L342.4 417.5zM473.3 241.4c18.7-18.7 49.1-18.7 67.9 0l17.3 17.3c18.7 18.7 18.7 49.1 0 67.9L405 480.1c-6.2 6.2-13.9 10.5-22.3 12.6l-74.8 18.7c-5.5 1.4-11.2-.2-15.2-4.2s-5.6-9.7-4.2-15.2l18.7-74.8c2.1-8.4 6.5-16.2 12.6-22.3L473.3 241.4z"/></svg>

<svg xmlns="http://www.w3.org/2000/svg" viewBox="0 0 576 512"><path d="M64 480H258.5L257.4 484.2C255.1 493.6 255.7 503.2 258.8 512H64C28.65 512 0 483.3 0 448V64C0 28.65 28.65 0 64 0H220.1C232.8 0 245.1 5.057 254.1 14.06L369.9 129.9C378.9 138.9 384 151.2 384 163.9V299.6L352 331.6V192H240C213.5 192 192 170.5 192 144V32H64C46.33 32 32 46.33 32 64V448C32 465.7 46.33 480 64 480H64zM347.3 152.6L231.4 36.69C229.4 34.62 226.8 33.18 224 32.48V144C224 152.8 231.2 160 240 160H351.5C350.8 157.2 349.4 154.6 347.3 152.6zM473.3 241.4C492.1 222.6 522.4 222.6 541.2 241.4L558.5 258.7C577.2 277.4 577.2 307.8 558.5 326.5L404.1 480.1C398.8 486.2 391.1 490.6 382.7 492.7L307.9 511.4C302.4 512.8 296.6 511.2 292.7 507.2C288.7 503.2 287.1 497.4 288.5 491.1L307.2 417.2C309.3 408.8 313.6 401 319.8 394.9L473.3 241.4zM518.6 263.1C512.3 257.7 502.2 257.7 495.9 263.1L471.2 288.8L511.1 328.7L535.9 303.9C542.1 297.7 542.1 287.5 535.9 281.3L518.6 263.1zM338.2 424.1L325.1 473.9L374.9 461.6C377.7 460.9 380.3 459.5 382.3 457.4L488.5 351.3L448.5 311.4L342.4 417.5C340.4 419.6 338.9 422.1 338.2 424.1L338.2 424.1z"/></svg>
